X: 29883
T: O'Keeffe's
R: slide
M: 12/8
K: Edorian
|:E2B B2A FEF A2F|E2B B2A F2D DEF|
E2B B2A FEF A2D|1 FEF A2B F2E EFD:|2 FEF A2B F2E EFA||
|:B2e e2f e2d B2A|B3 eef e2d B2c|
d3 dcB AFE D2E|1 FEF A2B F2E EFA:|2 FEF A2B F2E EFD||
|:E2B B2A B2c d2E|F2A ABA D2E FED|
E2B B2A B2c d3|1 cdc B2A B2E E2D:|2 cdc B2A B2E E2B||
|:e2f gfe d2B Bcd|c2A ABc d2B Bcd|
e2f gfe d2B Bcd|1 cdc B2A B2E E2B:|2 cdc B2A B2E E2D||

